X:1
T:Colwyn Bay, 886 D
T:Colwyn Bay, 886 D
T:Thomas Joseph Linekar, 1902
T:Public Domain Courtesy of the Cyber Hymnal™
C:Thomas Joseph Linekar, 1902
Z:Public Domain
Z:Courtesy of the Cyber Hymnal™
%%score ( 1 2 ) ( 3 4 )
L:1/8
Q:1/4=115
M:4/4
K:Eb
V:1 treble 
V:2 treble 
V:3 bass 
V:4 bass 
V:1
 E2 | [CG]3 [CF] [CF]2 [EA]2 | [EG]2 [DF]2 E2 [EG]2 | [EB]3 [EB] [Ec]2 [EB]2 | %4
 [EG]2 [E=A]2 [FB]2 [Gc]2 | [Fd]3 [FB] [EB]2 [E=A]2 | [DB]6 [DF]2 | [FA]3 [FG] [FG]2 c2 | %8
 [Gc]3 [G=B] [GB]2 [GB]2 | [Gc]2 [Fd]2 [Ee]2 [Fd]2 | [Gc]2 [GB]2 [FA]2 [EG]2 | %11
 [CG]3 [CF] [B,E]2 [DF]2 | E6 |] %13
V:2
 E2 | x8 | x4 E2 x2 | x8 | x8 | x8 | x8 | x6 (EG) | x8 | x8 | x8 | x8 | E6 |] %13
V:3
 [E,G,]2 | [A,,B,]3 [A,,A,] [A,,A,]2 [F,,C]2 | [B,,B,]2 [B,,A,]2 [E,G,]2 [E,B,]2 | %3
 [G,B,]3 [G,B,] A,2 [G,B,]2 | [E,B,]2 [C,F,]2 [D,F,]2 [E,B,]2 | [F,B,]3 [F,D] [F,C]2 [F,C]2 | %6
 [B,,B,]6 [B,,B,]2 | [=B,,D]3 [B,,G,] [B,,G,]2 [C,E]2 | [G,D]3 [G,D] [G,D]2 [F,D]2 | %9
 [E,C]2 [D,=B,]2 [C,C]2 [D,B,]2 | [E,C]2 [=E,G,]2 [F,A,]2 [G,B,]2 | %11
 [A,B,]3 [A,,A,] [B,,G,]2 [B,,A,]2 | [E,G,]6 |] %13
V:4
 x2 | x8 | x8 | x4 A,2 x2 | x8 | x8 | x8 | x8 | x8 | x8 | x8 | x8 | x6 |] %13

